X: 1427
T: Fiddler Joe
B: australian traditional tunes wiki
M:6/8
L:1/8
Q: 3/8=100
K:G
V:1 
A|:B2GD2B|c2EE2c|B2GF2G|A3DEG|
B2GD2B|c2EE2c|B2G AEF|G6:|
c3c2d|e3 efe|d3B3-|B2AG2B|c3c2d|e3efe|d6-|d3G2A|
B3B3|c3cdc|B3G3-|G3B2c|B3A3|F3D3|G6-|G2z3||
% abcbook-tune_id 6342d53a4190dadba3894c2a


% abcbook-boost 0
% abcbook-tablature 
% abcbook-transpose 
% abcbook-lastupdated 1665324364614
% abcbook-soundfonts 
% abcbook-repeats 1
% NFF Book 2007

